build/img/0-common/geo.svg

<svg width="35" height="35" viewBox="0 0 35 35" fill="none" xmlns="http://www.w3.org/2000/svg">
<rect width="35" height="35" rx="3" fill="#0064CB"/>
<path d="M17.3337 8.28711C13.8058 8.28711 10.9355 11.1574 10.9355 14.6853C10.9355 19.1195 17.34 26.6941 17.34 26.6941C17.34 26.6941 23.7319 18.9015 23.7319 14.6853C23.7319 11.1574 20.8618 8.28711 17.3337 8.28711ZM19.2642 16.5587C18.7319 17.0909 18.0329 17.357 17.3337 17.357C16.6347 17.357 15.9355 17.0909 15.4034 16.5587C14.3389 15.4943 14.3389 13.7624 15.4034 12.6979C15.9188 12.1822 16.6045 11.8982 17.3337 11.8982C18.063 11.8982 18.7485 12.1823 19.2642 12.6979C20.3287 13.7624 20.3287 15.4943 19.2642 16.5587Z" fill="white"/>
</svg>

<svg width="35" height="35" fill="none" xmlns="http://www.w3.org/2000/svg"><rect width="35" height="35" rx="3" fill="#0064CB"/><path d="M17.334 8.287a6.406 6.406 0 00-6.399 6.398c0 4.434 6.405 12.01 6.405 12.01s6.392-7.794 6.392-12.01a6.405 6.405 0 00-6.398-6.398zm1.93 8.272a2.722 2.722 0 01-1.93.798 2.721 2.721 0 01-1.93-.798 2.733 2.733 0 010-3.861 2.711 2.711 0 011.93-.8c.729 0 1.415.284 1.93.8a2.733 2.733 0 010 3.86z" fill="#fff"/></svg>
